icons/mobile/16/svg/lock-slash-16.svg

<svg width="16" height="16" viewBox="0 0 16 16" fill="none" xmlns="http://www.w3.org/2000/svg">
<path fill-rule="evenodd" clip-rule="evenodd" d="M2.18219 2.18218C2.42612 1.93825 2.82284 1.93855 3.06696 2.18218L13.817 12.9322C14.061 13.1763 14.061 13.5729 13.817 13.8169C13.5729 14.061 13.1763 14.061 12.9322 13.8169L12.0425 12.9273C11.6495 13.477 11.0322 13.855 10.3209 13.9087C9.5489 13.9677 8.76559 13.9966 7.99762 13.9966C7.22975 13.9966 6.45672 13.9687 5.69684 13.9107C4.46393 13.8186 3.49762 12.7766 3.49762 11.5386V8.95464C3.49778 7.96098 4.12098 7.10355 4.99762 6.75347V5.88238L2.18219 3.06695C1.93856 2.82283 1.93827 2.42611 2.18219 2.18218ZM6.88532 7.77007C6.51308 7.78407 6.14044 7.80458 5.77008 7.83257C5.19721 7.87556 4.7488 8.36979 4.7486 8.95562V11.5396C4.7486 12.1265 5.20679 12.6214 5.79157 12.6656C7.25057 12.7756 8.74907 12.7756 10.2291 12.6646C10.6336 12.6342 10.974 12.3786 11.1402 12.025L6.88532 7.77007Z" fill="black"/>
<path d="M8.00055 2.00054C9.6544 2.00054 11.0003 3.34675 11.0006 5.00054V6.76031C11.8784 7.11425 12.5004 7.96874 12.5006 8.95855V10.2222L11.2506 8.97222V8.95855C11.2503 8.37175 10.7924 7.87656 10.2076 7.83257C10.1747 7.82962 10.1408 7.83066 10.108 7.82867L8.81794 6.53863C9.12879 6.54762 9.44071 6.54799 9.74958 6.56597V4.99956C9.74933 4.03477 8.96443 3.24956 7.99958 3.24956C7.33179 3.24972 6.75742 3.63132 6.46247 4.18316L5.55426 3.27593C6.0982 2.50714 6.98981 2.00069 8.00055 2.00054Z" fill="black"/>
</svg>

<!-- This Source Code Form is subject to the terms of the Mozilla Public
   - License, v. 2.0. If a copy of the MPL was not distributed with this
   - file, You can obtain one at http://mozilla.org/MPL/2.0/. -->
<svg xmlns="http://www.w3.org/2000/svg" width="16" height="16" fill="none" viewBox="0 0 16 16">
    <path fill="#000" fill-rule="evenodd" d="M2.182 2.182a.627.627 0 0 1 .885 0l10.75 10.75a.626.626 0 0 1-.885.885l-.89-.89c-.393.55-1.01.928-1.721.982a31 31 0 0 1-4.624.002 2.39 2.39 0 0 1-2.2-2.372V8.955a2.38 2.38 0 0 1 1.5-2.202v-.87L2.183 3.066a.627.627 0 0 1 0-.885M6.885 7.77q-.559.021-1.115.063a1.12 1.12 0 0 0-1.02 1.123v2.584c0 .587.458 1.081 1.043 1.126 1.459.11 2.957.11 4.437-.001.405-.03.745-.286.911-.64z" clip-rule="evenodd" />
    <path fill="#000" d="M8 2c1.654 0 3 1.347 3 3v1.76a2.38 2.38 0 0 1 1.5 2.199v1.263l-1.25-1.25V8.96c0-.587-.458-1.082-1.042-1.126l-.1-.004-1.29-1.29c.31.009.623.009.932.027V5c0-.965-.786-1.75-1.75-1.75-.668 0-1.243.381-1.538.933l-.908-.907A3 3 0 0 1 8.001 2" />
</svg>
